Assets/SVG APPS/QuickAssist.svg

<?xml version="1.0" encoding="UTF-8"?>
<svg xmlns="http://www.w3.org/2000/svg" xmlns:xlink="http://www.w3.org/1999/xlink" width="95px" height="95px" viewBox="0 0 95 95" version="1.1">
<g id="surface1">
<path style="fill:none;stroke-width:15;stroke-linecap:butt;stroke-linejoin:miter;stroke:rgb(0%,0%,0%);stroke-opacity:1;stroke-miterlimit:10;" d="M 133.010526 469.094737 L 378.989474 469.094737 L 502 256 L 378.989474 42.905263 L 133.010526 42.905263 L 10 256 Z M 133.010526 469.094737 " transform="matrix(0.185547,0,0,0.185547,0,0)"/>
<path style="fill-rule:nonzero;fill:rgb(0%,0%,0%);fill-opacity:1;stroke-width:4;stroke-linecap:butt;stroke-linejoin:miter;stroke:rgb(0%,0%,0%);stroke-opacity:1;stroke-miterlimit:10;" d="M 411.6 135.894737 C 410.8 133.2 406.694737 129.010526 403.894737 128.210526 C 401.094737 127.410526 184.105263 127.410526 181.410526 128.210526 C 179.010526 129.010526 174.8 133.305263 174 135.810526 C 173.705263 136.8 173.494737 152.4 173.410526 173.2 C 128.8 173.305263 90.905263 173.494737 89.810526 173.810526 C 87.305263 174.610526 83.094737 178.989474 82.294737 181.6 C 81.410526 184.610526 81.410526 332.210526 82.294737 335.2 C 83.094737 338 87.305263 342.210526 90.105263 343.010526 C 91.705263 343.494737 103.410526 343.6 137.705263 343.6 L 183.2 343.6 L 183.2 359.705263 L 178.694737 360 C 173.305263 360.294737 168.905263 362.105263 165.305263 365.494737 C 162.105263 368.4 159.494737 373.810526 159.094737 378.210526 C 158.8 381.305263 158.905263 381.705263 160.105263 382.905263 L 161.410526 384.210526 L 245.810526 384.210526 L 247.094737 382.905263 C 248.294737 381.705263 248.4 381.410526 248.105263 378.210526 C 247.6 373.705263 245.094737 368.4 241.894737 365.494737 C 238.210526 362 233.894737 360.294737 228.505263 360 L 224 359.705263 L 224 343.6 L 269.494737 343.6 C 303.705263 343.6 315.494737 343.410526 317.094737 343.010526 C 319.894737 342.210526 324.105263 338 324.905263 335.2 C 325.305263 334 325.494737 308.505263 325.494737 278.610526 L 404.4 278.610526 C 406.905263 278.610526 409.494737 278.505263 412 278.505263 C 412.4 248.4 412.294737 138.505263 411.6 135.894737 Z M 231.705263 368.694737 C 234 369.389474 239.094737 374 239.094737 375.410526 C 239.094737 376.105263 235.494737 376.210526 203.6 376.210526 C 171.705263 376.210526 168.105263 376.105263 168.105263 375.410526 C 168.105263 374.189474 173.2 369.389474 175.2 368.8 C 177.810526 368 228.905263 367.894737 231.705263 368.694737 Z M 191.410526 360 L 191.410526 343.789474 L 215.789474 343.789474 L 215.789474 360 Z M 317.2 330.294737 C 317.2 332.610526 317.010526 333.305263 315.894737 334.4 L 314.694737 335.705263 L 92.4 335.705263 L 91.2 334.4 C 90.105263 333.410526 89.894737 332.694737 89.894737 330.294737 L 89.894737 327.494737 L 317.094737 327.494737 L 317.094737 330.294737 Z M 317.2 319.389474 L 89.894737 319.389474 L 89.894737 183.894737 L 91.2 182.694737 L 92.4 181.389474 L 173.494737 181.389474 C 173.389474 216.210526 173.494737 261.094737 173.810526 278.8 C 176.505263 278.8 179.2 278.694737 181.894737 278.694737 C 182 278.694737 182.189474 278.694737 182.294737 278.694737 L 317.2 278.694737 Z M 317.2 251.705263 L 317.2 270.8 L 181.494737 270.8 L 181.494737 181.389474 L 314.8 181.389474 L 316 182.694737 L 317.305263 183.894737 Z M 404.210526 270.8 L 325.389474 270.8 C 325.494737 229.494737 325.2 183.410526 324.8 181.705263 C 324 178.905263 319.789474 174.694737 316.989474 173.894737 C 315.389474 173.389474 243.894737 173.2 181.494737 173.305263 L 181.494737 138 L 183.894737 135.6 L 401.789474 135.6 L 404.189474 138 Z M 404.210526 270.8 " transform="matrix(0.185547,0,0,0.185547,0,0)"/>
</g>
</svg>

<?xml version="1.0" encoding="utf-8"?>
<!-- Generator: Adobe Illustrator 24.3.0, SVG Export Plug-In . SVG Version: 6.00 Build 0)  -->
<svg version="1.1" id="Слой_1" xmlns="http://www.w3.org/2000/svg" xmlns:xlink="http://www.w3.org/1999/xlink" x="0px" y="0px"
	 viewBox="0 0 512 512" style="enable-background:new 0 0 512 512;" xml:space="preserve">
<style type="text/css">
	.st0{fill:none;stroke:#000000;stroke-width:15;stroke-miterlimit:10;}
	.st1{stroke:#000000;stroke-width:4;stroke-miterlimit:10;}
</style>
<polygon class="st0" points="133,469.1 379,469.1 502,256 379,42.9 133,42.9 10,256 "/>
<path class="st1" d="M411.6,135.9c-0.8-2.7-4.9-6.9-7.7-7.7c-2.8-0.8-219.8-0.8-222.5,0c-2.4,0.8-6.6,5.1-7.4,7.6
	c-0.3,1-0.5,16.6-0.6,37.4c-44.6,0.1-82.5,0.3-83.6,0.6c-2.5,0.8-6.7,5.2-7.5,7.8c-0.9,3-0.9,150.6,0,153.6c0.8,2.8,5,7,7.8,7.8
	c1.6,0.5,13.3,0.6,47.6,0.6h45.5v8.1v8l-4.5,0.3c-5.4,0.3-9.8,2.1-13.4,5.5c-3.2,2.9-5.8,8.3-6.2,12.7c-0.3,3.1-0.2,3.5,1,4.7
	l1.3,1.3h42.2h42.2l1.3-1.3c1.2-1.2,1.3-1.5,1-4.7c-0.5-4.5-3-9.8-6.2-12.7c-3.7-3.5-8-5.2-13.4-5.5l-4.5-0.3v-8v-8.1h45.5
	c34.2,0,46-0.2,47.6-0.6c2.8-0.8,7-5,7.8-7.8c0.4-1.2,0.6-26.7,0.6-56.6h78.9l0,0c2.5,0,5.1-0.1,7.6-0.1
	C412.4,248.4,412.3,138.5,411.6,135.9z M231.7,368.7c2.3,0.7,7.4,5.3,7.4,6.7c0,0.7-3.6,0.8-35.5,0.8s-35.5-0.1-35.5-0.8
	c0-1.2,5.1-6,7.1-6.6C177.8,368,228.9,367.9,231.7,368.7z M191.4,360v-8.1v-8.1h12.2h12.2v8.1v8.1h-12.2H191.4z M317.2,330.3
	c0,2.3-0.2,3-1.3,4.1l-1.2,1.3H203.6H92.4l-1.2-1.3c-1.1-1-1.3-1.7-1.3-4.1v-2.8h113.6h113.6v2.8H317.2z M317.2,319.4H203.6H89.9
	v-67.7v-67.8l1.3-1.2l1.2-1.3h81.1c-0.1,34.8,0,79.7,0.3,97.4c2.7,0,5.4-0.1,8.1-0.1c0.1,0,0.3,0,0.4,0h134.9V319.4z M317.2,251.7
	v19.1H181.5v-89.4h22.1h111.2l1.2,1.3l1.3,1.2L317.2,251.7L317.2,251.7z M404.2,270.8h-78.8c0.1-41.3-0.2-87.4-0.6-89.1
	c-0.8-2.8-5-7-7.8-7.8c-1.6-0.5-73.1-0.7-135.5-0.6V138l1.2-1.2l1.2-1.2h217.9l1.2,1.2l1.2,1.2L404.2,270.8L404.2,270.8z"/>
</svg>
